X: 081
Q: "Slowish"
M: 6/8
L: 1/8
K: G
V: 1
(gb).B ceA | EAG TF2D | (ce).A (Bd).G | EAF G2 :|
|: B/c/ |\
d>cB gfg | eag Tf2d | (gb).B ~cBc | (Ad).G ~F2D |\
(GB).D CEA | ~c>Bc DBc | dgb EAc | DAF G2 :|
V: 2 clef=bass middle=d
z |\
b2^g a2z | c2^c d2z | a2f g2B | c2d G2 :|
|: z |\
g3 G2B | c2^c d2z | b2g a2e | f2g d2z |\


